X: 2910
T: Barra To Balloch
R: jig
M: 6/8
K: Fdorian
c|:cBc e2 c|fgf fec|cBc e2 g|gfe f2 g|
bge f2 f|gfe gBc|Bce e2 c|gBc c3:|
|:Bcg gag-|gfe fec|cBc g2 g|gbe f2 a|
gfg b2 g|gfe gBc|Bce e2 c|gBc c3:|

